app/client/src/assets/icons/blueprintjs/20px/code.svg

<svg xmlns="http://www.w3.org/2000/svg" xml:space="preserve" viewBox="0 0 20 20"><path fill-rule="evenodd" d="M6 6a1.003 1.003 0 0 0-1.71-.71l-4 4C.11 9.47 0 9.72 0 10c0 .28.11.53.29.71l4 4a1.003 1.003 0 0 0 1.42-1.42L2.41 10 5.7 6.71c.19-.18.3-.43.3-.71zm6-4c-.46 0-.83.31-.95.73l-4 14c-.02.09-.05.17-.05.27 0 .55.45 1 1 1 .46 0 .83-.31.95-.73l4-14c.02-.09.05-.17.05-.27 0-.55-.45-1-1-1zm7.71 7.29-4-4a1.003 1.003 0 0 0-1.42 1.42l3.3 3.29-3.29 3.29c-.19.18-.3.43-.3.71a1.003 1.003 0 0 0 1.71.71l4-4c.18-.18.29-.43.29-.71 0-.28-.11-.53-.29-.71z" clip-rule="evenodd"/></svg>

<?xml version="1.0" encoding="utf-8"?>
<!-- Generator: Adobe Illustrator 17.1.0, SVG Export Plug-In . SVG Version: 6.00 Build 0)  -->
<!DOCTYPE svg PUBLIC "-//W3C//DTD SVG 1.1//EN" "http://www.w3.org/Graphics/SVG/1.1/DTD/svg11.dtd">
<svg version="1.1" id="Layer_1" xmlns="http://www.w3.org/2000/svg" xmlns:xlink="http://www.w3.org/1999/xlink" x="0px" y="0px"
	 viewBox="0 0 20 20" enable-background="new 0 0 20 20" xml:space="preserve">
<g id="code_1_">
	<g>
		<path fill-rule="evenodd" clip-rule="evenodd" d="M6,6c0-0.55-0.45-1-1-1C4.72,5,4.47,5.11,4.29,5.29l-4,4C0.11,9.47,0,9.72,0,10
			c0,0.28,0.11,0.53,0.29,0.71l4,4C4.47,14.89,4.72,15,5,15c0.55,0,1-0.45,1-1c0-0.28-0.11-0.53-0.29-0.71L2.41,10l3.29-3.29
			C5.89,6.53,6,6.28,6,6z M12,2c-0.46,0-0.83,0.31-0.95,0.73l-4,14C7.03,16.82,7,16.9,7,17c0,0.55,0.45,1,1,1
			c0.46,0,0.83-0.31,0.95-0.73l4-14C12.97,3.18,13,3.1,13,3C13,2.45,12.55,2,12,2z M19.71,9.29l-4-4C15.53,5.11,15.28,5,15,5
			c-0.55,0-1,0.45-1,1c0,0.28,0.11,0.53,0.29,0.71L17.59,10l-3.29,3.29C14.11,13.47,14,13.72,14,14c0,0.55,0.45,1,1,1
			c0.28,0,0.53-0.11,0.71-0.29l4-4C19.89,10.53,20,10.28,20,10C20,9.72,19.89,9.47,19.71,9.29z"/>
	</g>
</g>
</svg>
